client/src/assets/images/icon-acute-findings-white.svg

<svg viewBox="0 0 97.83 97.96" xmlns="http://www.w3.org/2000/svg"><g fill="#fff"><path d="m70.9 26.27h-11.71v-1.36a.75.75 0 0 0 -.75-.75h-4.44a5.39 5.39 0 0 0 -10.53 0h-4.47a.76.76 0 0 0 -.75.75v1.36h-11.69a.76.76 0 0 0 -.75.75v50.67a.75.75 0 0 0 .75.75h44.34a.75.75 0 0 0 .75-.75v-50.69a.76.76 0 0 0 -.75-.73zm-31.13-.61h4.34a.75.75 0 0 0 .75-.68 3.89 3.89 0 0 1 7.75 0 .74.74 0 0 0 .74.68h4.34v7.26h-17.92zm18.67 8.76a.75.75 0 0 0 .75-.75v-1.36h5.89v40.41h-32.7v-40.41h5.89v1.36a.76.76 0 0 0 .75.75zm11.71 42.52h-42.84v-49.17h11v3h-6.68a.75.75 0 0 0 -.75.75v41.95a.76.76 0 0 0 .75.75h34.2a.76.76 0 0 0 .75-.75v-41.91a.75.75 0 0 0 -.75-.75h-6.64v-3h11z"/><path d="m45 41.83h3.37v3.37a.5.5 0 0 0 .5.5.5.5 0 0 0 .5-.5v-3.37h3.38a.5.5 0 0 0 .5-.5.51.51 0 0 0 -.5-.5h-3.42v-3.37a.5.5 0 0 0 -.5-.5.5.5 0 0 0 -.5.5v3.37h-3.33a.51.51 0 0 0 -.5.5.5.5 0 0 0 .5.5z"/><path d="m59.24 65.52h-12a.5.5 0 0 0 -.5.5.5.5 0 0 0 .5.5h12a.51.51 0 0 0 .5-.5.5.5 0 0 0 -.5-.5z"/><path d="m59.24 57.77h-12a.5.5 0 0 0 -.5.5.5.5 0 0 0 .5.5h12a.51.51 0 0 0 .5-.5.5.5 0 0 0 -.5-.5z"/><path d="m46.82 51a.5.5 0 0 0 .5.5h12a.5.5 0 0 0 .5-.5.5.5 0 0 0 -.5-.5h-12a.5.5 0 0 0 -.5.5z"/><path d="m42.77 63.8-3.08 3.77-1.26-1.26a.5.5 0 0 0 -.71 0 .5.5 0 0 0 0 .7l1.65 1.65a.49.49 0 0 0 .36.15.5.5 0 0 0 .36-.18l3.43-4.19a.5.5 0 1 0 -.77-.64z"/><path d="m42.77 56.05-3.08 3.77-1.26-1.26a.5.5 0 0 0 -.71 0 .5.5 0 0 0 0 .7l1.65 1.65a.49.49 0 0 0 .36.15.5.5 0 0 0 .36-.18l3.43-4.19a.5.5 0 1 0 -.77-.64z"/><path d="m37.8 51.31a.5.5 0 0 0 0 .7l1.65 1.65a.51.51 0 0 0 .36.15.49.49 0 0 0 .36-.18l3.43-4.19a.5.5 0 0 0 -.07-.71.5.5 0 0 0 -.7.07l-3.08 3.77-1.26-1.26a.5.5 0 0 0 -.69 0z"/></g></svg>

<svg xmlns="http://www.w3.org/2000/svg" viewBox="0 0 97.83 97.96"><defs><style>.cls-1{fill:#fff;}</style></defs><title>completed_circle</title><g id="Content"><path class="cls-1" d="M70.9,26.27H59.19V24.91a.75.75,0,0,0-.75-.75H54a5.39,5.39,0,0,0-10.53,0H39a.76.76,0,0,0-.75.75v1.36H26.56a.76.76,0,0,0-.75.75V77.69a.75.75,0,0,0,.75.75H70.9a.75.75,0,0,0,.75-.75V27A.76.76,0,0,0,70.9,26.27Zm-31.13-.61h4.34a.75.75,0,0,0,.75-.68,3.89,3.89,0,0,1,7.75,0,.74.74,0,0,0,.74.68h4.34v7.26H39.77Zm18.67,8.76a.75.75,0,0,0,.75-.75V32.31h5.89V72.72H32.38V32.31h5.89v1.36a.76.76,0,0,0,.75.75ZM70.15,76.94H27.31V27.77h11v3H31.63a.75.75,0,0,0-.75.75V73.47a.76.76,0,0,0,.75.75h34.2a.76.76,0,0,0,.75-.75V31.56a.75.75,0,0,0-.75-.75H59.19v-3h11Z"/><path class="cls-1" d="M45,41.83h3.37V45.2a.5.5,0,0,0,.5.5.5.5,0,0,0,.5-.5V41.83h3.38a.5.5,0,0,0,.5-.5.51.51,0,0,0-.5-.5H49.33V37.46a.5.5,0,0,0-.5-.5.5.5,0,0,0-.5.5v3.37H45a.51.51,0,0,0-.5.5A.5.5,0,0,0,45,41.83Z"/><path class="cls-1" d="M59.24,65.52h-12a.5.5,0,0,0-.5.5.5.5,0,0,0,.5.5h12a.51.51,0,0,0,.5-.5A.5.5,0,0,0,59.24,65.52Z"/><path class="cls-1" d="M59.24,57.77h-12a.5.5,0,0,0-.5.5.5.5,0,0,0,.5.5h12a.51.51,0,0,0,.5-.5A.5.5,0,0,0,59.24,57.77Z"/><path class="cls-1" d="M46.82,51a.5.5,0,0,0,.5.5h12a.5.5,0,0,0,.5-.5.5.5,0,0,0-.5-.5h-12A.5.5,0,0,0,46.82,51Z"/><path class="cls-1" d="M42.77,63.8l-3.08,3.77-1.26-1.26a.5.5,0,0,0-.71,0,.5.5,0,0,0,0,.7l1.65,1.65a.49.49,0,0,0,.36.15h0a.5.5,0,0,0,.36-.18l3.43-4.19a.5.5,0,1,0-.77-.64Z"/><path class="cls-1" d="M42.77,56.05l-3.08,3.77-1.26-1.26a.5.5,0,0,0-.71,0,.5.5,0,0,0,0,.7l1.65,1.65a.49.49,0,0,0,.36.15h0a.5.5,0,0,0,.36-.18l3.43-4.19a.5.5,0,1,0-.77-.64Z"/><path class="cls-1" d="M37.8,51.31a.5.5,0,0,0,0,.7l1.65,1.65a.51.51,0,0,0,.36.15h0a.49.49,0,0,0,.36-.18l3.43-4.19a.5.5,0,0,0-.07-.71.5.5,0,0,0-.7.07l-3.08,3.77-1.26-1.26A.5.5,0,0,0,37.8,51.31Z"/></g></svg>
